X: 17
T: The Rolling Waves
S: https://thesession.org/tunes/515 2015-4-6
S: http://terrytraub.org/abc/RollingWavesJ.abc
R: jig
M: 6/8
L: 1/8
K: D
A  |\
"D"F2E "A7"EDE | "D"F2D D2{E}D | "D"F2E "A"EFA | "G"d2e "A"fdA |\
"D"F2E "A7"EDE | "D"F2D D2{E}D | "A"AFE EFA | "G"B3 "D"d2 :|
|:B |\
"D"ABd "A"e2f | "Bm"d2[cA] "A7"B2A | "D"ABd "A"e2f | "Bm"d2[cA] "G"B3 |\
"D"ABd "A"ede | "Bm"fdB BAF | "A"AFE EFA | "G"B3 "D"d2 :|

%%sep 1 1 500

